!!!OTL: VERDENK MIRS NICHT DASS ICH DICH MEIDE
!!!ARE: Europa, Mitteleuropa, Deutschland, Hessen, Odenwald
!!!SCT: E0716A
!!!YEM: Copyright 1995, estate of Helmut Schaffrath.
**kern
*ICvox
*Ivox
*M3/4
*k[b-e-]
*B-:
=1
{4b-
4dd
4cc
=2
4dd
4b-
4r}
=3
{4b-
4dd
4cc
=4
4dd
4b-
4r}
=5
{4b-
4dd
4ff
=6
4ff
4ee-
4r}
=7
{4ee-
4dd
4cc
=8
4cc
4b-
4r}
=9
{4b-
4dd
4cc
=10
4dd
4b-
4r}
=11
{4b-
4dd
4cc
=12
4dd
4b-
4r}
=13
{4b-
4dd
4ff
=14
4ff
4ee-
4r}
=15
{4ee-
4dd
4cc
=16
4cc
4b-
4r}
=17
{4ff
8gg
8ff
8ee-
8dd
=18
2ee-
4r}
=19
{4ee-
8ff
8ee-
8dd
8cc
=20
2dd
4r}
=21
{4dd
8ee-
8dd
8cc
8b-
=22
2cc
4r}
=23
{4ff
4dd
4cc
=24
2b-
4r}
==
!!!AGN: Liebes - Lied, Leid, Klage
!!!ONB: ESAC (Essen Associative Code) Database: ERK2
!!!AMT: simple triple
!!!AIN: vox
!!!EED: Helmut Schaffrath
!!!EEV: 1.0
*-
